src/copy-success.svg

<svg width="24" height="24" viewBox="0 0 24 24" xmlns="http://www.w3.org/2000/svg" xmlns:xlink="http://www.w3.org/1999/xlink">
  <path d="M14.82 3C14.4 1.84 13.3 1 12 1c-1.3 0-2.4.84-2.82 2H5c-1.1 0-2 .9-2 2v16.025c0 1.1.9 2 2 2h14c1.1 0 2-.9 2-2V5c0-1.1-.9-2-2-2h-4.18zM12 3c.55 0 1 .45 1 1s-.45 1-1 1-1-.45-1-1 .45-1 1-1zm-2 15l-4-4 1.41-1.41L10 15.17l6.59-6.59L18 10l-8 8z" fill="currentColor"/>
</svg>

<svg width="24" height="24" viewBox="0 0 24 24" xmlns="http://www.w3.org/2000/svg">
<path fill-rule="evenodd" clip-rule="evenodd" d="M14.82 3C14.4 1.84 13.3 1 12 1C10.7 1 9.6 1.84 9.18 3H5C3.9 3 3 3.9 3 5V21.0251C3 22.1251 3.9 23.0251 5 23.0251H19C20.1 23.0251 21 22.1251 21 21.0251V5C21 3.9 20.1 3 19 3H14.82ZM12 3C12.55 3 13 3.45 13 4C13 4.55 12.55 5 12 5C11.45 5 11 4.55 11 4C11 3.45 11.45 3 12 3ZM10 18L6 14L7.41 12.59L10 15.17L16.59 8.58L18 10L10 18Z" fill="currentColor"/>
</svg>
